X:30
T: Jack Coughlan's
S: Mike Rafferty
Z: B.Black
R: reel
M: 4/4
L: 1/8
K: G
B | cABA G3 B | AE E2 GEDB | cABA G3 A | BdAc BGGB |
cABA G3 B | AE E2 GEDB | cABA G3 A | BdAc BGGE ||
DBDE GFGA | BA (3Bcd ed B2 | dBde g3 e | dBAc BGGE |
DBDE GFGA | BA (3Bcd ed B2 | dBde g3 e | dBAc BGGB ||
